X: 1
T: Alice Murphy
C: James Gray
R: air
B: Alex & James Gray "Tweeddale Collection" v.4 p.51 #3,6
N: Tune for "Hana" by Alex Gray
Z: 2017 John Chambers <jc:trillian.mit.edu>
M: C
L: 1/8
K: A
"E7"E2 |\
"A"A3c "D"BAFD | "E"EFAB "A"c3e | "F#m"a3g fecA | "Bm"B3A "D"F2 "E7"ED |
"A"CB,A,C "/c#"AG | "D"FEDF "E"E2 F/G/A/B/ | "A"c3d "F#m"cBAF | "E"E4 E2 ||
F/G/A/B/ |\
"A"c3e "F#m"agfe | "F#m"c3B "A/c#"A3E | "D"F3D FAdf | "E7"e3d "A"c3B |
"A"AECA, "/c#"E2AG | "D"FEDF "E"E2 d/e/f/g/ | "A"a3f "F#m"ecBA | "Bm"B3"E"c "A"A2 |]
